X: 30517
T: Ollin
R: jig
M: 6/8
K: Bminor
|:Bdf edB|e2 d B2 f|fB/c/d Bdf|ade edB|
Bdf edB|efd ABA|FBd edB|1 B2 B BAF:|2 B2 B dBF]
|:G3 GFE|B2 B BAG|A3 AGE|Bcc efb|
^g3 eBc|B^GA BeB|B2 ^G GAB|1 BA^G A2 G:|2 BA^G AB/d/f]
g2g2 fe|B2 B GAB|f3 fed|A3 A z e|
^g3 eBc|B^GA BeB|B2 ^G GAB|BA^G A3|
DGB DB/c/d|efd dB/c/d|deA z B/c/d|dABz AB|
^G2 A z AB|^GGAz AB|^G2 A z AB|^G3 !D.S.! z3|
^G2 Az AB|^G/G/,GA z AB|^G/G/,GA z AB|^G2 A eAG|
FGA z eA|FGA eAG|EFA z AB|EFA ABA|
^G2 A z AB|^G/G/,GA z AB|^G/G/,GA z AB|^G2 A eAG|
FGA z eA|FGA eAG|EFA z AB|EFA ABA|^G6||

